!!!!SEGMENT: pl-wtm--r-2535_hertz-michal--spiew-greckich-kaplanek.krn
!!!cenid: 18xx:3099
!!!COM: Hertz, Michał
!!!COM-rismID:
!!!CDT: 1844/09/28-~1918
!!!CNT: Polish
!!!OTL: Śpiew greckich kapłanek
!!!PDT:
!!!AGN:
!!!SMS-siglum: PL-Wtm
!!!SMS-shelfmark: R 2535
!!!SMS-shelfwork: W
!!!SMS-variant:
!!!SMS-altvar:
!!!NIFC-rismSourceID: 1001082617
!!!NIFC-islandoraID:
!!!URL-pdf-islandora:
!!!URL-scan:
!!!ONB-nifc:
!!!AIN: 1 feme 2 piano
!!!key: a
!!!OMD: Andante
**kern	**kern	**dynam	**kern	**text	**dynam
*group2	*group2	*	*group1	*	*
*part3	*part2	*part2	*part1	*part1	*part1
*staff3	*staff2	*	*staff1	*staff1	*
*I"[Piano]	*I"[Piano]	*	*I"Śpiew. (Chór kobiecy)	*	*
*Ipiano	*Ipiano	*	*Ifeme	*	*
*ICklav	*ICklav	*	*ICvox	*	*
*IGacmp	*IGacmp	*	*IGcoro	*	*
*clefF4	*clefG2	*	*clefG2	*	*
*k[]	*k[]	*	*k[]	*	*
*a:	*a:	*	*a:	*	*
*M6/8	*M6/8	*	*M6/8	*	*
=1	=1	=1	=1	=1	=1
*	*	*	*^	*	*
*	*	*	*	*^	*	*
!LO:TX:t=P:problem=all\right&colon; global	!LO:TX:t=P:problem=all\right&colon; global	!	!LO:TRX:t=P:problem=all\right&colon; global	!LO:TX:t=P:problem=all\right&colon; global	!LO:TX:t=P:problem=all\right&colon; global	!	!
8r	[<4.e\ (<\4.a (>\4.cc	p	(>4.cc/	[<4.e/	(<4.c\	W ga-	.
8AA\L	.	.	.	.	.	.	.
8A\J	.	.	.	.	.	.	.
8B\L	4e\] 4g#X\))	.	4g#X/)	4e\]	4B\)	.	.
8BB\J	.	.	.	.	.	.	.
8r	8e\ 8g#\	.	8g#/	8e\	8B\	-ju	.
=2	=2	=2	=2	=2	=2	=2	=2
8r	8e\L 8b	<	4.b/	4.e/	4.d\	świę-	.
8d\L	8e\ 8ee\	.	.	.	.	.	.
8D\J	[<8ee\J	.	.	.	.	.	.
8r	8ee\L]	.	4.a/	4.e/	4.c\	-tym	.
8c\L	8ee\	.	.	.	.	.	.
8C\J	8eee\J	[[	.	.	.	.	.
=3	=3	=3	=3	=3	=3	=3	=3
8r	[<4.a\ (<\4.dd (>\4.ff	.	(>4.ff/	[<4.a\	(<4.d\	pod	.
8D\L	.	.	.	.	.	.	.
8d\J	.	.	.	.	.	.	.
8e\L	4a\] 4cc#X\))	.	4cc#X/)	4a/]	4e\)	.	.
8E\J	.	.	.	.	.	.	.
8r	8a\ 8cc#\	.	8a/ 8cc#	8ryy	8e\	skle-	.
=4	=4	=4	=4	=4	=4	=4	=4
8r	8a\L 8ee\	<	4.ee/	4.a/	4.g\	-pie-	.
8g\L	8a\ 8aa\	.	.	.	.	.	.
8G\J	[<8aa\J	.	.	.	.	.	.
8r	8aa\L]	.	4.dd/	4.a/	4.f\	-niem	.
8f\L	8aa\	.	.	.	.	.	.
8F\J	8aaa\J	[[	.	.	.	.	.
*	*	*	*	*v	*v	*	*
=5	=5	=5	=5	=5	=5	=5
8r	(<4.cc\ (<\4.aa (>\4.ccc	.	(4.cc/	(4.a\	pod	.
8e\L	.	.	.	.	.	.
8E\J	.	.	.	.	.	.
8r	4b\) 4gg#X\) 4bb\)	.	4b/)	4g#X\)	.	.
8E\L	.	.	.	.	.	.
!	!LO:TX:b:t=cre_scen_do:problem=dynamics with extention lines	!LO:HP:i:t=cre-scen-do:ext=ud	!	!	!	!
8EE\J	(<8a\ 8ff\ (>\8aa	<	8a/	8f\	skle-	.
=6	=6	=6	=6	=6	=6	=6
*rep	*	*	*	*	*	*
8r	4g#X\) 4ee\ 4gg#X\)	.	(4g#X/	(4e\	-pie-	.
8e\L	.	.	.	.	.	.
8E\J	(<8f\ 8dd\ (>\8ff	.	8f/)	8d\)	.	.
8r	4e\) 4cc\ 4ee\)	.	(4e/	(4c\	-niem	.
8E\L	.	.	.	.	.	.
8EE\J	8f\ 8dd\ (>\8ff	.	8f/)	8d\)	.	.
*Xrep	*	*	*	*	*	*
!!LO:LB:g=original
=7	=7	=7	=7	=7	=7	=7
8r	4g#X\) 4ee\ 4gg#X\	.	4g#X/	4e\	sta-	.
8e\L	.	.	.	.	.	.
!	!	!	!	!LO:N:vis=4	!	!
8E\J	(<8a\ 8ff\ (>\8aa	.	8a/	8f\	-rych	.
8r	4cc\) 4aa\ 4ccc\)	.	4cc/	4a\	sta-	.
8E\L	.	.	.	.	.	.
8EE\J	8b\ 8gg#X\ (>\8bb	.	8b/	8g#X\	-rych	.
=8	=8	=8	=8	=8	=8	=8
*	*^	*	*	*	*	*
*	*	*^	*	*	*	*	*
*rep	*	*	*	*	*	*	*	*
8r	8b\ 8gg#X\ 8bb\)	8ryy	8ryy	.	[>4.b/	[<4.g#X\	drzew,	.
8e\L	[>4ee/	8ee\L	[<4e\	.	.	.	.	.
8E\J	.	8dd#X\J	.	.	.	.	.	.
8r	[>4.ee/]	8ddn\L	4.e\]	[	8b/]	8g#\]	.	.
8E\L	.	8cc\	.	.	8r	8ryy	.	.
8EE\J	.	8b\J	.	.	8e/	8e\	o	.
*Xrep	*	*	*	*	*	*	*	*
*	*v	*v	*v	*	*	*	*	*
=9	=9	=9	=9	=9	=9	=9
!	!LO:TX:t=P:problem=ligatura do 4.ee	!	!	!	!	!
8r	4ee\_>	.	[4.ee/	[4.cc\	Se-	.
8e\L	.	.	.	.	.	.
8E\J	8r	f	.	.	.	.
!	!	!	!	!	!	!LO:DY:b
4.EE/	8ryy	.	4ee/]	4cc\]	.	f
.	8E/L	.	.	.	.	.
.	8e/J	.	8cc/	8a\	-me-	.
=10	=10	=10	=10	=10	=10	=10
*rep	*	*	*	*	*	*
!	!LO:TX:t=P:problem=ligatura do kolejnego 4.ee	!	!	!	!	!
8r	4.e\ 4.b\ 4.ee\_>	.	[4.b/	[4.e\	-le,	.
8e\L	.	.	.	.	.	.
8E\J	.	.	.	.	.	.
4.EE/	8r	.	8b/]	8e\]	.	.
.	8E/L	.	8r	8ryy	.	.
.	8e/J	.	8b/	8e\	o	.
*Xrep	*	*	*	*	*	*
=11	=11	=11	=11	=11	=11	=11
*rep	*	*	*	*	*	*
8r	(>4.e\ 4.a\ 4.ee\]	.	[4.a/ [4.cc	4.a\	Se-	.
8e\L	.	.	.	.	.	.
8E\J	.	.	.	.	.	.
!	!	!	!	!	!	!LO:DY:b:rj
4.EE/	8r	p	8a/] 8cc]	4a\	.	p
.	8E/L	.	8ryy	.	.	.
.	8e/J)	.	8a/	8c\	-me-	.
*Xrep	*	*	*	*	*	*
=12	=12	=12	=12	=12	=12	=12
*rep	*	*	*	*	*	*
8r	4.e\ 4.b\ 4.ee\	.	4.e/ [4.g#X	[4.e\	-le!	.
8e\L	.	.	.	.	.	.
8E\J	.	.	.	.	.	.
4.EE/	8r	.	8e/ 8g#]	8e\]	.	.
.	8E/L	.	8r	4ryy	.	.
.	8e/J	.	8r	.	.	.
*Xrep	*	*	*	*	*	*
!!LO:LB:g=original
=13	=13	=13	=13	=13	=13	=13
!	!	!	!	!	!	!LO:DY:b
8r	[<4.e\ (<\4.a (>\4.cc	p	[<4.e/ (</4.cc	(>4.A\	Có-	p
8AA\L	.	.	.	.	.	.
8A\J	.	.	.	.	.	.
8B\L	4e\] 4g#X\))	.	4e/] 4g#X/)	4B\)	.	.
8BB\J	.	.	.	.	.	.
8r	8e\ 8g#	.	8e/ 8g#/	8B\	-ry	.
=14	=14	=14	=14	=14	=14	=14
8r	8.e\L 8.b\	.	4.b/	4.d\ 4.e\	a-	.
8d\L	.	.	.	.	.	.
.	(>16ee\L	<	.	.	.	.
8D\J	16ff#X\	.	.	.	.	.
.	(>16gg#X\JJ	.	.	.	.	.
8r	16aa\LL)	.	4.a/	4.c\ 4.e\	-ten	.
.	16bb\	.	.	.	.	.
8c\L	16ccc\	.	.	.	.	.
.	16ddd\J	.	.	.	.	.
8C\J	8ee\J) 8aa 8eee	[[	.	.	.	.
=15	=15	=15	=15	=15	=15	=15
*	*	*^	*	*	*	*
!	!LO:TX:b:t=cre_scen_do:problem=dynamics with extention lines	!LO:HP:i:t=cre-scen-do:ext=ud	!	!	!LO:TX:b:t=crescen_do:problem=dynamics with extention lines	!	!LO:HP:b:i:t=cre-scen-do:ext=ud
8r	[<4.a\ 4.dd\ (>\4.ff	<	.	(4.ff/	(4.d\ [4.a\	dziś	<
8D\L	.	.	.	.	.	.	.
8d\J	.	.	.	.	.	.	.
8e\L	4a\] 4cc#X\)	.	.	4cc#X/)	4e\) 4a\]	.	.
8E\J	.	.	.	.	.	.	.
8r	8a\ 8cc#	.	.	8cc#/	8e\ 8a\	ża-	.
=16	=16	=16	=16	=16	=16	=16	=16
8r	8.a\L 8.ee\	.	<	4.ee/	4.g\ 4.a\	-ło-	.
8g\L	.	.	.	.	.	.	.
.	(>16aa\L	.	.	.	.	.	.
8G\J	16bb\	.	.	.	.	.	.
.	(>16ccc#X\JJ	.	.	.	.	.	.
8r	16ddd\LL)	.	.	4.dd/	4.f\ 4.a\	-bny,	.
.	16eee\	.	.	.	.	.	.
8f\L	16fff\	.	.	.	.	.	.
.	16ggg\J	.	.	.	.	.	.
8F\J	8aa\J) 8ddd 8aaa	[	[	.	.	.	.
*	*	*v	*v	*	*	*	*
=17	=17	=17	=17	=17	=17	=17
*	*	*	*	*^	*	*
!	!	!LO:DY:rj	!	!	!	!	!LO:DY:b:rj
8r	[<4.a\ (<\4.ff (>\4.aa	sf	(>4.a/	[>2.a/	(<4.f\	dziś	[ sf
8a\L	.	.	.	.	.	.	.
8A\J	.	.	.	.	.	.	.
4.AA/	4a\] 4ee\) 4gg\)	.	4g/)	.	4e\)	.	.
!	!LO:TX:b:t=dimi_nuendo:problem=dynamics with extention lines	!LO:HP:i:b:t=dimi-nuendo:ext=ud	!	!	!LO:TX:b:t=dimi_nuendo:problem=dynamics with extention lines	!	!LO:HP:i:b:t=dimi-nuendo:ext=ud
.	[<8a\ (<\8dd (>\8ff	>	8f/	.	8d\	ża-	>
=18	=18	=18	=18	=18	=18	=18	=18
*rep	*	*	*	*	*	*	*
8r	4a\] 4cc\) 4ee\)	.	4.a/_>	4e/	(<4c\	-ło-	.
8a\L	.	.	.	.	.	.	.
8A\J	[<8a\ (<\8b (>\8dd	.	.	8d/	8B\)	.	.
4.AA/	4a\] 4cc\) 4ee\)	.	4a/]	4e/	(<4c\	.	.
.	[<8a\ (<\8dd (>\8ff	.	8a/	8f/	8d\)	-bny	.
*Xrep	*	*	*	*	*	*	*
*	*	*	*	*v	*v	*	*
!!LO:LB:g=original
=19	=19	=19	=19	=19	=19	=19
8r	4.a\] 4.cc\) [>\4.ee)	.	(>4a/ 4ee/	(<4.c\ [<\4.e	zno-	.
8a\L	.	.	.	.	.	.
8A\J	.	.	8a/	.	.	.
!	!	!LO:DY:rj	!	!	!	!LO:DY:b
8r	4g#X\ 4b\ 4ee\]	] p	4g#X/) 4b/	4e\])	.	] p
8e\L	.	.	.	.	.	.
!	!	!	!LO:TX:a:t=x:rj:color=blue	!	!	!
8E\J	8g#\ 8cc\ 8ee\	.	8cc/	8e\ 8g#\	-szą	.
=20	=20	=20	=20	=20	=20	=20
8r	[<4.a\ [<\4.cc [>\4.ee	.	[>4.cc/	[<4.a\	śpiew.	.
8a\L	.	.	.	.	.	.
8A\J	.	.	.	.	.	.
4.AA/	8a\] 8cc\] 8ee\]	.	8cc/]	8a\]	.	.
!	!	!	!LO:TX:b:t=alty:color=blue	!	!	!
.	8r	.	8r	4ryy	.	.
.	8r	.	8r	.	.	.
=21	=21	=21	=21	=21	=21	=21
!	!	!	!	!	!	!LO:DY:b
8r	[>2.c/	sf	4c/	4c\	Oj-	f
8G\L	.	.	.	.	.	.
8C\J	.	.	8c/	8c\	-ca	.
8G\L	.	.	8d/L	8d\L	twe-	.
8C\	.	.	8e-X/J	8e-\J	.	.
8G\J	.	.	8en/	8en\	-go	.
=22	=22	=22	=22	=22	=22	=22
!	!LO:TX:t=P:problem=tryl, przednutka i przednutki po jakby skreślone	!	!	!	!	!
.	8qd/	.	.	.	.	.
8r	2.cT>/_>	.	4f/	4f\	te-	.
8G\L	.	.	.	.	.	.
8C\J	.	.	8a-X/	8a-\	-bań-	.
4.CC/	.	.	4cc/	4cc\	-skie-	.
.	.	.	8b/	8b\	-go	.
.	(<32qqB/LLL	.	.	.	.	.
.	32qqc/	.	.	.	.	.
.	32qqd/JJJ)	.	.	.	.	.
!!LO:LB:g=original
=23	=23	=23	=23	=23	=23	=23
8r	(<2.c/_>	.	4a-X/	4a-\	te-	.
8G\L	.	.	.	.	.	.
8C\J	.	.	8g/	8g\	-bań-	.
8G\L	.	.	8f/L	8f\L	-skie-	.
8C\	.	.	8e/J	8e\J	.	.
8G\J	.	.	8f/	8f\	-go	.
=24	=24	=24	=24	=24	=24	=24
8r	2.c/_>) [>/2.cc	.	[<4.a-X/	[>4.a-\	Kró-	.
8G\L	.	.	.	.	.	.
8C\J	.	.	.	.	.	.
4.CC/	.	.	8a-/L]	8a-\L]	.	.
.	.	.	8g/J	8g\J	.	.
.	.	.	8e-X/	8e-\	-la	.
=25	=25	=25	=25	=25	=25	=25
*rep	*2\right	*	*	*	*	*
8r	2.c\] 2.cc\] 2.ccc\	.	[<4.g/	[>4.g\	dłoń	.
8G\L	.	.	.	.	.	.
8C\J	.	.	.	.	.	.
4.CC/	.	.	8g/]	8g\]	.	.
.	.	.	8r	4ryy	.	.
.	.	.	8r	.	.	.
*Xrep	*	*	*	*	*	*
=26	=26	=26	=26	=26	=26	=26
!	!	!	!LO:TX:a:t=Sopr:rj:color=blue	!	!	!LO:DY:b:rj
!	!	!LO:DY:rj	!LO:TX:t=P:problem=W taktach 26-30 dolne dźwięki skreślone niebieską linią	!	!	!
8r	[<2.G/	sf	4g/	4G\ 4g\	gdy	ff
8D\L	.	.	.	.	.	.
8GG\J	.	.	8g/	8G\ 8g\	ze-	.
8D\L	.	.	8a-X/L	8A-X\L	-chnę-	.
8GG\	.	.	8b/J	8B\	.	.
8D\J	.	.	8cc/	8c\J	-ła	.
=27	=27	=27	=27	=27	=27	=27
.	8qA/	.	.	.	.	.
8r	(>2.G/_<	.	4dd-X/	4d-X\	u-	.
8D\L	.	.	.	.	.	.
(>8GG\J	.	.	8ee/	8e\	-wie-	.
4.GGG/)	.	.	4ff/	4f\	-dzio-	.
.	.	.	8ee/	8e\	-ną	.
.	(<32qqF#X/LLL	.	.	.	.	.
.	32qqG/	.	.	.	.	.
.	32qqA/JJJ))	.	.	.	.	.
!!LO:PB:g=original
=28	=28	=28	=28	=28	=28	=28
8r	2.G/_<	.	4dd-X/	4d-X\	gdy	.
8D\L	.	.	.	.	.	.
8GG\J	.	.	8cc/	8c\	ze-	.
8D\L	.	.	8b-X/L	8B-X\L	-chnę-	.
8GG\	.	.	8a-X/J	8A-X\J	.	.
8D\J	.	.	8b-/	8B-\	-ła	.
=29	=29	=29	=29	=29	=29	=29
8r	2.G/_< [>/2.g	.	[>4.dd-X/	[<4.d-X\	w mor-	.
8D\L	.	.	.	.	.	.
8GG\J	.	.	.	.	.	.
4.GGG\	.	.	8dd-/L]	8d-\L]	.	.
.	.	.	8cc/J	8c\J	.	.
.	.	.	8a-X/	8A-X\	-ską	.
=30	=30	=30	=30	=30	=30	=30
*rep	*	*	*	*	*	*
8r	2.G/] 2.g/] 2.gg/	.	[>4.cc/	4.c\	toń.	.
8D\L	.	.	.	.	.	.
8GG\J	.	.	.	.	.	.
4.GGG\	.	.	8cc/]	8c\	.	.
.	.	.	8r	4ryy	.	.
.	.	.	8r	.	.	.
*Xrep	*	*	*	*	*	*
!!LO:LB:g=original
=31	=31	=31	=31	=31	=31	=31
!	!	!LO:DY:b:rj	!	!	!	!LO:DY:b:rj
16FF\LL	16r	p	[>4.a/	(<[<4.f\	Twym	p
16C\	16A\LL	.	.	.	.	.
16F\	16c\	.	.	.	.	.
16A\	16f\	.	.	.	.	.
16c\	16a\	.	.	.	.	.
16f\JJ	16cc\JJ	.	.	.	.	.
16a\LL	16ff\LL	.	4f/ 4a]	4f\]	.	.
16f\	16cc\	.	.	.	.	.
16c\	16a\	.	.	.	.	.
16A\	16f\	.	.	.	.	.
16F\	16c\	.	8g/ 8b/	8f\)	ko-	.
16C\JJ	16A\JJ	.	.	.	.	.
=32	=32	=32	=32	=32	=32	=32
!	!	!	!	!	!	!LO:DY:a
16EE\LL	16r	.	4cc/	4e\ 4g\	-chan-	<
16C\	16G\LL	.	.	.	.	.
16E\	16c\	.	.	.	.	.
16G\	16e\	.	.	.	.	.
16c\	16g\	.	8cc/	8e\ 8g\	-kiem	.
16e\JJ	16cc\JJ	.	.	.	.	.
16g\LL	16ee\LL	.	4dd/	4e\ 4g\	był	.
16e\	16cc\	.	.	.	.	.
16c\	16g\	.	.	.	.	.
16G\	16e\	.	.	.	.	.
16E\	16c\	.	8cc/ 8ee/	8c\	O-	.
16C\JJ	16G\JJ	.	.	.	.	.
=33	=33	=33	=33	=33	=33	=33
8D/L	16r	.	4cc/ 4ff/	4d\	-lim-	.
.	16A\LL	.	.	.	.	.
8DD/J	16c\	.	.	.	.	.
.	(>16A\ 16f\	.	.	.	.	.
8r	16c\ 16a\	.	8cc/ 8ff/	8d\	-pu	.
.	16f\JJ) 16cc\	.	.	.	.	.
8G\L	16r	.	4gg/	4g\ 4b\	pier-	.
.	16B\LL	.	.	.	.	.
8GG\J	(>16d\	.	.	.	.	.
.	16B\ 16g\	.	.	.	.	.
8r	16d\ 16b\	.	8dd/	8g\ 8b\	-wszy	.
.	16g\JJ) 16dd\	.	.	.	.	.
=34	=34	=34	=34	=34	=34	=34
8C\L	16r	.	[<4.cc/ [>/4.ee	[<4.c\	bóg	.
.	16G#X\LL	.	.	.	.	.
8CC\J	16c\	.	.	.	.	.
.	16G#X\ 16e\	.	.	.	.	.
8r	16c\ 16g#X\	.	.	.	.	.
.	16e\JJ 16cc\	.	.	.	.	.
16g>::\LL	8cc::/L 8ee::/	.	8cc/] 8ee]	8c\]	.	[
16e>\	.	.	.	.	.	.
16c>\	8cc/ 8ee/ 8aa#X/	.	8r	8r	.	.
16A>\	.	.	.	.	.	.
16E\	8ee/J 8aa#/ 8eee/	.	8r	8c\	.	.
16C\JJ	.	.	.	.	.	.
!!LO:LB:g=original
=35	=35	=35	=35	=35	=35	=35
!	!	!	!	!	!	!LO:DY:b:rj
8F\	8ff\ 8aa\ 8eee\	.	4r	4.a\	Któż-	f
8r	8r	.	.	.	.	.
8FF:\ 8C:\ 8F:\	8A:/ 8c:/ 8a:/	f	8r	.	.	.
4EE:\ 4C:\ 4E:\	4G:/ 4c:/ 4g:/	.	8r	4g\	-by	.
.	.	.	8ryy	.	.	.
8r	8r	.	8cc/	8a\	się	.
=36	=36	=36	=36	=36	=36	=36
4DD:/ 4C:/ 4D:/	4A:/ 4c:/ 4f:/	.	4.ff/	4.a\ 4.cc\	mo-	.
8r	8r	.	.	.	.	.
4EE:/ 4C:/ 4E:/	4A:/ 4c:/ 4e:/	.	4ee/	4.a\ 4.cc\	-cy	.
8r	8r	.	8cc/	.	śię	.
=37	=37	=37	=37	=37	=37	=37
4FF:/ 4C:/ 4F:/	4A:/ 4c:/ 4d:/	.	4cc/	4a\	ta-	.
8r	8r	.	8cc/ 8dd/	8a\	-kiej	.
4GG:/	4G:/ 4B:/ 4d:/	.	4dd/	4g\ 4b\	o-	.
8GG/	8G/ 8B/ 8d#X/	.	8dd#X/	8g\ 8b\	-przeć	.
=38	=38	=38	=38	=38	=38	=38
8.C\L	16G/LL 16c/ 16e/	<	[>4.cc/ [>/4.ee	[<4.c/ [</4.g	mógł ?	.
!	!LO:TX:t=P:problem=dźwięk niewidoczny	!	!	!	!	!
.	16ryy	.	.	.	.	.
.	16c/JJ	.	.	.	.	.
16E\L	16c/LL	.	.	.	.	.
16G\	16e/	.	.	.	.	.
16c\JJ	16g/JJ	.	.	.	.	.
!	!	!LO:DY:b	!	!	!	!
8c:\	16f:\ 16cc\LL:	[ f	8g/ 8cc] 8ee]	8c\] 8g\]	.	.
.	16g\ 16ee\	.	.	.	.	.
4A:\	16cc\ 16gg\	.	8r	8ryy	.	.
.	16ee\ 16ccc\	.	.	.	.	.
!	!	!	!	!	!	!LO:DY:b:rj
.	16gg\ 16eee\	.	8g/	8g\	o	p
.	16ee\ 16ccc\JJ	.	.	.	.	.
!!LO:LB:g=original
=39	=39	=39	=39	=39	=39	=39
!	!	!	!	!	!	!LO:DY:b:rj
8r	8g\ 8dd\ 8ff\ 8gg\	.	[>4.gg/	[<4.B\ [<\4.g [<\4.dd	ſe-	p
8B\L	8r	.	.	.	.	.
8BB\J	8r	.	.	.	.	.
4.BBB/	8r	.	4gg/]	4B\] 4g\] 4dd\]	.	.
.	8G/L	.	.	.	.	.
.	8g/J	.	8dd/ 8ff/	8B\ 8g\	-me-	.
=40	=40	=40	=40	=40	=40	=40
8r	8g\ 8cc\ 8ee\ 8gg\	.	[<4.g/ [</4.cc [>/4.ee	[<4.c\	-le	.
8c\L	8r	.	.	.	.	.
8C\J	8r	.	.	.	.	.
!	!	!	!LO:N:vis=4	!	!	!
4.CC/	8r	.	8g/] 8cc/] 8ee/]	8c\]	.	.
.	8G/L	.	8r	8ryy	.	.
!	!	!	!	!	!	!LO:DY:b:rj
.	8g/J	.	8g/ 8cc/ 8ee/	8c\	o	pp
=41	=41	=41	=41	=41	=41	=41
!	!	!	!LO:TX:b:t=x:color=blue:rj	!	!	!
8r	8f\ 8b\ 8ee\ 8gg\	pp	[<4.g/ [</4.b [>/4.ee	[<4.B\	ſe-	.
8G\L	8r	.	.	.	.	.
8GG\J	8r	.	.	.	.	.
8GGG/	4f\ 4b\ 4ee\	.	4g/] 4b/] 4ee/]	4B\]	.	.
8r	.	.	.	.	.	.
8G#X\	8f\ 8b\ 8dd\	.	8b/ 8dd/	8A\ 8f\	-me-	.
=42	=42	=42	=42	=42	=42	=42
*	*	*^	*	*	*	*
!	!	!	!	!LO:TX:b:t=x:color=blue:rj	!	!	!
!	!	!	!	!LO:TX:a:t=x:color=blue:rj	!	!	!
8A\L	4.e\ 4.g\ 4.cc\	.	.	[>4.a/ [>/4.cc	(<4.e\	-le	.
8A\	.	.	.	.	.	.	.
8Gn\	.	.	.	.	.	.	.
!	!	!	!	!LO:N:vis=8	!	!	!
8F\	4.f^>\ 4.a\ 4.cc\	<	<	4a/] 4cc/]	4f\)	.	.
8E\	.	.	.	.	.	.	.
[>8D\J	.	.	.	8r	8ryy	.	.
=43	=43	=43	=43	=43	=43	=43	=43
!	!	!	!	!	!	!	!LO:DY:b
8D\L]	4.a^>\ 4.cc\ 4.ff\	.	.	4r	[>4.f^\	ſe-	f
8C\	.	.	.	.	.	.	.
[>8BB\J	.	.	.	8r	.	.	.
8BB\L]	4.cc^>\ 4.ff\ 4.aa\	[	.	4ff/	4f\]	ſe-	.
8C\	.	.	.	.	.	.	.
[>8D\J	.	.	.	8f/	[>8f\	-me-	.
*	*	*v	*v	*	*	*	*
=44	=44	=44	=44	=44	=44	=44
!	!LO:TX:t=P:problem=crescendo (napisane) nakłada się na diminuendo	!	!	!	!	!
4.D\]	[<4.a\ [>\4.cc [>\4.ff	>	[<4.f/	4.f\_>	-le	.
4D#X\	4a\] 4cc\] 4ff\]	.	8f/]	8f\]	-le	.
.	.	.	8r	4ryy	.	.
8r	8r	]]	8r	.	.	.
!!LO:LB:g=original
=45	=45	=45	=45	=45	=45	=45
!	!	!	!LO:TX:b:t=x:rj:color=blue	!	!	!LO:DY:b:rj
8E\L	4.e\ 4.a\ 4.cc\	.	[<4.e/ (>/4.cc	(<4.c\	W ga-	p
8e\	.	p	.	.	.	.
8E\J	.	.	.	.	.	.
4.EE/	4e/ 4g#X/	.	4g#X/)	4B\) 4e]	.	.
.	8e/ 8g#/	.	8e/ 8g#/	8B\	-ju	.
=46	=46	=46	=46	=46	=46	=46
8r	8e\L 8b\	.	4.b/	4.d\ 4.e\	świę-	.
8d\L	16e\L 16ee\	<	.	.	.	.
.	16ee\	.	.	.	.	.
!	!LO:TX:a:t=P:problem=# above	!	!	!	!	!
8D\J	16ff#X\	.	.	.	.	.
!	!LO:TX:a:t=P:problem=# above	!	!	!	!	!
.	(>16gg#X\JJ	.	.	.	.	.
8r	16aa\LL)	.	4.a/	4.c\ 4.e\	-tym	.
.	16bb\	.	.	.	.	.
8c\L	16ccc\	.	.	.	.	.
.	16ddd\J	.	.	.	.	.
8C\J	8ee\J 8aa\ 8eee\	[[	.	.	.	.
=47	=47	=47	=47	=47	=47	=47
8r	(>4.a\ 4.dd\ 4.ff\	.	(>4.ff/	(<4.d\ [<\4.a	dziś	.
8D\L	.	.	.	.	.	.
8d\J	.	.	.	.	.	.
8r	4a\ 4cc#X\	.	4cc#X/)	4e\) 4a\]	.	.
8e\L	.	.	.	.	.	.
8E\J	8a\) 8cc#\	.	8cc#/	8e\ 8a\	a-	.
=48	=48	=48	=48	=48	=48	=48
8r	8a\L 8ee\	.	4.ee/	4.g\ 4.a\	-teń-	.
8g\L	16a\L 16aa\	<	.	.	.	.
.	16aa\	.	.	.	.	.
8G\J	16bb\	.	.	.	.	.
.	(<16ccc#X\JJ	.	.	.	.	.
8r	16ddd\LL)	.	4.dd/	4.f\ 4.a\	-skich	.
.	16eee\	.	.	.	.	.
8f\L	16fff\	.	.	.	.	.
.	16ggg\J	.	.	.	.	.
8F\J	8aa\J 8aaa	[[	.	.	.	.
!!LO:PB:g=original
=49	=49	=49	=49	=49	=49	=49
8r	(<4.cc\ (<\4.aa (>\4.ccc	.	(>4.cc/	(<4.a\	dziś	.
8e\L	.	.	.	.	.	.
8E\J	.	.	.	.	.	.
8r	4b\) 4gg#X\) 4bb\)	.	4b/)	4g#X\)	.	.
8E\L	.	.	.	.	.	.
!	!LO:TX:b:t=cre_scen_do:problem=dynamics with extention lines	!LO:HP:i:t=cre-scen-do:ext=ud	!	!	!	!
8EE\J	(<8a\ (<\8ff (>\8aa	<	8a/	8f\	a-	.
=50	=50	=50	=50	=50	=50	=50
*rep	*	*	*	*	*	*
8r	4g#X\))) 4ee\ 4gg#X\	.	(>4g#X/	(<4e\	-teń-	.
8e\L	.	.	.	.	.	.
8E\J	(<8f\ (<\8dd (>\8ff	.	8f/)	8d\)	.	.
8r	4e\) 4cc\) 4ee\)	.	(>4e/	(<4c\	-skich	.
8E\L	.	.	.	.	.	.
8EE\J	(<8f\ (<\8dd (>\8ff	.	8f/)	8d\)	.	.
*Xrep	*	*	*	*	*	*
=51	=51	=51	=51	=51	=51	=51
*rep	*	*	*	*	*	*
8r	4g#X\) 4ee\) 4gg#X\)	.	4g#X/	4e\	gro-	.
8e\L	.	.	.	.	.	.
8E\J	(<8a\ (<\8ff (>\8aa	.	8a/	8f\	-no	.
8r	4cc\) 4aa\) 4ccc\)	.	4cc/	4a\	gro-	.
8E\L	.	.	.	.	.	.
8EE\J	8b\ 8gg#X\ 8bb\	.	8b/	8g#X\	-no	.
*Xrep	*	*	*	*	*	*
=52	=52	=52	=52	=52	=52	=52
*rep	*	*	*	*	*	*
8r	[<4.b\ [<\4.gg#X [>\4.bb	.	[>4.b/	[<4.g#X\	cóż,	.
8e\L	.	.	.	.	.	.
8E\J	.	.	.	.	.	.
8r	8b\] 8gg#\] 8bb\]	[	8b/]	8g#\]	.	.
8E\L	8r	.	8r	8ryy	.	.
!	!	!	!	!	!	!LO:DY:b
8EE\J	8r	.	8e/	8e\	o	f
*Xrep	*	*	*	*	*	*
!!LO:LB:g=original
=53	=53	=53	=53	=53	=53	=53
!LO:TX:b:t=O	!LO:N:vis=4., pauza 4	!	!	!	!	!
8r	4e\ 4cc\ 4ee\	f	4.cc/ [>4.ee	[<4.cc\	ſe-	.
8e\L	.	.	.	.	.	.
8E\J	8r	.	.	.	.	.
4.EE/	8r	.	4cc/ 4ee]	4cc\]	.	.
.	8E/L	.	.	.	.	.
.	8e/J	.	8cc/	8a\	-me-	.
=54	=54	=54	=54	=54	=54	=54
*rep	*	*	*	*	*	*
8r	4.e\ 4.b\ 4.ee\	.	4.e/ [>4.b	[<4.e\	-le	.
8e\L	.	.	.	.	.	.
8E\J	.	.	.	.	.	.
4.EE/	8r	.	8b/]	8e\]	.	.
.	8E/L	.	8r	8ryy	.	.
!	!	!	!	!	!	!LO:DY:b:rj
.	8e/J	.	8b/	8e\	o	p
*Xrep	*	*	*	*	*	*
=55	=55	=55	=55	=55	=55	=55
*rep	*	*	*	*	*	*
!	!	!LO:DY:rj	!	!	!	!
8r	4.e\ 4.a\ 4.cc\ 4.ee\	p	4.a/ [>4.cc	[<4.a\	ſe-	.
8e\L	.	.	.	.	.	.
8E\J	.	.	.	.	.	.
4.EE/	8r	.	4cc/]	4a\]	.	.
.	8E/L	.	.	.	.	.
.	8e/J	.	8a/	8c\	-me-	.
*Xrep	*	*	*	*	*	*
=56	=56	=56	=56	=56	=56	=56
*rep	*	*	*	*	*	*
8r	4.e\ 4.g#X\ 4.ee\	.	4.e/ [>4.g#X	[<4.e\	-le!	.
8e\L	.	.	.	.	.	.
8E\J	.	.	.	.	.	.
4.EE/	8r	.	8g#/]	8e\]	.	.
.	8E/L	.	8r	4ryy	.	.
.	8e/J	.	8r	.	.	.
*Xrep	*	*	*	*	*	*
!!LO:LB:g=original
=57	=57	=57	=57	=57	=57	=57
!	!LO:S:color=gray	!LO:DY:b:rj	!	!	!	!LO:DY:b:rj
8r	(<4.f\@ (<\4.a@ (>\4.dd@	p	[<4.f/ [>/4.a [>/4.dd	[<4.B\	żal	p
8B\L	.	.	.	.	.	.
8BB\J	.	.	.	.	.	.
!	!LO:N:xstem	!	!	!	!	!
8BBB/	4f\)@ 4a\)@ 4dd\)@	.	4f/] 4a/] 4dd/]	4B\]	.	.
8r	.	.	.	.	.	.
8r	8f/ 8a/ 8cc/	.	8f/ 8a/ 8cc/	8c\	za	.
=58	=58	=58	=58	=58	=58	=58
16r	16f/ 16a/ 16b/	.	4.a/ 4.b/	4.d\ 4.f\	to-	.
16D\LL	16d\LL	.	.	.	.	.
16F\	16f\	.	.	.	.	.
16A\	16a\	.	.	.	.	.
16B\	16b\	.	.	.	.	.
16A\JJ	16a\JJ	.	.	.	.	.
16B\LL	16b\LL	.	4.f/ 4.a/ 4.dd/	4.B\	-bą	.
16F\	16f\	.	.	.	.	.
16A\	16a\	.	.	.	.	.
16B\	16b\	.	.	.	.	.
16d\	16dd\	.	.	.	.	.
16B\JJ	16b\JJ	.	.	.	.	.
=59	=59	=59	=59	=59	=59	=59
!	!	!	!	!LO:TX:b:t=cre_scen_do:problem=dynamics with extention lines	!	!LO:HP:i:b:t=cre-scen-do:ext=ud
8r	[<4.a\ [<\4.cc [>\4.ff	.	[>4.ff/	[<4.d\ 4.a\ 4.cc\	w je-	<
8d\L	.	.	.	.	.	.
8D\J	.	.	.	.	.	.
8DD/	4a\] 4cc\] 4ff\]	.	4ff/]	4d\] 4a\ 4cc\	.	.
8r	.	.	.	.	.	.
8r	8a\ 8cc\ 8ee\	.	8a/ 8cc/ 8ee/	8e\	-den	.
=60	=60	=60	=60	=60	=60	=60
16r	16a/ 16cc/ 16dd/	.	4.dd/	4.f\ 4.a\ 4.cc\	smę-	.
16F\LL	16f\LL	.	.	.	.	.
16A\	16a\	.	.	.	.	.
16c\	16cc\	.	.	.	.	.
16d\	16dd\	.	.	.	.	.
16c\JJ	16cc\JJ	.	.	.	.	.
16d\LL	16dd\LL	.	4.ff/	4.d\ 4.a\ 4.cc\	-tny	.
16A\	16a\	.	.	.	.	.
16c\	16cc\	.	.	.	.	.
16d\	16dd\	.	.	.	.	.
16f\	16ff\	.	.	.	.	.
16d\JJ	16dd\JJ	.	.	.	.	.
=61	=61	=61	=61	=61	=61	=61
*	*	*	*	*2\right	*	*
!	!	!LO:DY:b	!	!	!	!LO:DY:b
8r	2.b\ 2.dd\ 2.aa\	f	(>2.aa/	[<2.f\ 2.b\ 2.dd\	łą-	[ f
8f\L	.	.	.	.	.	.
8F\J	.	.	.	.	.	.
8F\L	.	.	.	.	.	.
8FF\J	.	.	.	.	.	.
8r	.	.	.	.	.	.
=62	=62	=62	=62	=62	=62	=62
8r	[<4.b\ [<\4.dd [>\4.gg#X	.	[>4.gg#X/)	4.f\_< [<\4.b [>\4.dd	.	.
8f\L	.	.	.	.	.	.
8F\J	.	.	.	.	.	.
8FF/	4b\] 4dd\] 4gg#\]	.	4gg#/]	4f\] 4b\] 4dd\]	.	.
8r	.	.	.	.	.	.
8r	8b\ 8ee\ 8gg#\	.	8gg#/	8e\ 8b\ 8ee\	-czą	.
!!LO:LB:g=original
=63	=63	=63	=63	=63	=63	=63
!	!	!	!	!	!	!LO:HP:b
8r	2.b\ 2.ff\ 2.gg#X\	.	(>2.ff/ [>/2.gg#X	[<2.d\ [<\2.b	chór	<
8d\L	.	.	.	.	.	.
8D\J	.	.	.	.	.	.
8D\L	.	.	.	.	.	.
8DD\J	.	.	.	.	.	.
8r	.	.	.	.	.	.
=64	=64	=64	=64	=64	=64	=64
8r	[<4.b\ [<\4.ee [>\4.gg#X	.	4.b/_<) 4.ee/ 4.gg#/_>	4.d\_<	.	[
8d\L	.	.	.	.	.	.
8D\J	.	.	.	.	.	.
8DD/	4b\] 4ee\] 4gg#\]	.	8b/] 8ee/ 8gg#/]	8d\]	.	.
8r	.	.	8r	8r	.	.
!	!	!	!	!	!	!LO:DY:b:rj
8r	8g#X\ 8b\ 8ee\	.	8g#X/ 8b/ 8ee/	8d\	o	f
=65	=65	=65	=65	=65	=65	=65
4C\ 4c\	[<4.a\ [<\4.ee [>\4.aa	.	[<4.ee/ [>/4.aa	[<4.c\ [<\4.a	ſe-	.
8CC\L 8C\	.	.	.	.	.	.
8EE\ 8E\	4a\] 4ee\] 4aa\]	.	4ee/] 4aa/]	4c\] 4a\]	.	.
8C\ 8c\	.	.	.	.	.	.
8BB\J 8B\	8a\ 8dd\ 8ff\	.	8a/ 8dd/ 8ff/	8B\	-me-	.
=66	=66	=66	=66	=66	=66	=66
!!mixed beam:problem
!	!LO:TX:t=P:problem=mixed beam	!	!	!	!	!
16C\LL 16c	16a\LL 16ee\	.	[<4.a/ [>/4.ee	[<4.c\	-le,	.
16CC\	16C</	.	.	.	.	.
16EE\	16D</	.	.	.	.	.
16AA\	16A</	.	.	.	.	.
16C\	16c</	.	.	.	.	.
16AA\JJ	16A</JJ	.	.	.	.	.
!	!LO:TX:t=P:problem=dźwięki słabo widoczne	!	!	!	!	!
16C\LL	16c/LL	.	8a/] 8ee/]	8c\]	.	.
16E\	16A</	.	.	.	.	.
!LO:TX:b:t=a	!	!	!	!	!	!
16A\	16c</	.	8r	8r	.	.
!LO:TX:b:t=c	!	!	!	!	!	!
16c\	16e</	.	.	.	.	.
!LO:TX:b:t=e	!	!	!	!	!	!
16e\	16ryy	.	8a/ 8cc/	8e\	o	.
!LO:TX:b:t=a	!	!	!	!	!	!
16a\JJ	16ryy/JJ	.	.	.	.	.
=67	=67	=67	=67	=67	=67	=67
4D\ 4d\	[<4.a\ [>\4.ff	.	[>4.ff/	[<4.d\ [<\4.a	ſe-	.
8DD\ 8D\	.	.	.	.	.	.
8FF\L 8F\	4a\] 4ff\]	.	4ff/]	4d\] 4a\]	.	.
8AA\ 8A\	.	.	.	.	.	.
8BB\J 8B\	8f\ 8a\ 8dd\	.	8dd/	8f\ 8a\	-me-	.
=68	=68	=68	=68	=68	=68	=68
16E\LL	16e\LL 16a\ 16cc\	.	[<4.a/ [>/4.cc	[<4.e\	-le	.
16EE\	16E\	.	.	.	.	.
16GG\	16A\	.	.	.	.	.
16C\	16c\	.	.	.	.	.
16E\	16e\	.	.	.	.	.
16C\JJ	16c\JJ	.	.	.	.	.
!	!	!LO:DY:a	!	!	!	!
16E\LL	16e/LL	p	8a/] 8cc/]	8e\]	.	.
16AA\	16A/	.	.	.	.	.
16C\	16c/	.	8r	8r	.	.
16E\	16e/	.	.	.	.	.
16A\	16a/	.	8a/	8c\ 8e\	dziś	.
16C\JJ	16e/JJ	.	.	.	.	.
*	*	*	*v	*v	*	*
!!LO:LB:g=original
=69	=69	=69	=69	=69	=69
8r	[<2.d/ [</2.f [</2.a [>/2.b	.	[<2.d/ [<2.f [<2.a [>2.b	w je	.
8d\L	.	.	.	.	.
8D\J	.	.	.	.	.
4.DD\	.	.	.	.	.
=70	=70	=70	=70	=70	=70
*	*	*	*^	*	*
!	!	!LO:DY:rj	!	!	!	!LO:DY:b:rj
8D\L 8d\	4.d\_< 4.f\_< 4.a\] 4.b\_>	p	4.a/_>	4.d\_< 4.f\_< 4.b\_<	[[w je-]]	p
8DD\J 8D\	.	.	.	.	.	.
8r	.	.	.	.	.	.
!	!	!	!	!	!	!LO:HP:b
8D\L 8d\	8d\L] 8f\] 8a\ 8b\]	.	8a/L] 8b/]	8d\L] 8f]	.	<
8C\ 8c\	8e\ 8a\ 8cc\	.	8a/J 8cc/	8c\J 8e\	.	.
8BB\J 8B\	8f\J 8a\ 8dd\	.	8a/ 8dd/	8B\ 8f\	-den	.
=71	=71	=71	=71	=71	=71	=71
4.C\ 4.c\	4.e\ 4.a\ 4.ee\	.	(>4.ee/	(<4.c\ 4.e\ 4.a\	smę-	.
4D\ 4d\	4f\ 4a\ 4dd\	.	4ff/)	4d\) 4a\	.	.
8F\	8f\ 8a\ 8dd\	.	8dd/	8f\ 8a\	-tny	.
=72	=72	=72	=72	=72	=72	=72
*	*^	*	*	*	*	*
8r	2.a/ 2.cc/	2.e\	.	2.a/ 2.cc/	2.e\	łą-	[
8e\L	.	.	.	.	.	.	.
8E\J	.	.	.	.	.	.	.
4.EE\	.	.	.	.	.	.	.
*	*v	*v	*	*	*	*	*
*	*	*	*v	*v	*	*
=73	=73	=73	=73	=73	=73
*	*2\left	*	*2\left	*	*
8r	2.e\ 2.g#X\ 2.b\	.	2.d\ 2.e\ 2.g#X\	-czą	.
8e\L	.	.	.	.	.
8E\J	.	.	.	.	.
!LO:N:vis=4	!	!	!	!	!
4.EE\	.	.	.	.	.
=74	=74	=74	=74	=74	=74
!	!LO:TX:t=P:problem=takt bardzo niewyraźny	!	!	!	!
16A\LL 16c\ 16e\ 16a\	16cc\LL	.	2.c/ [</2.e [>/2.a	chór.	.
16e\	16aa\	.	.	.	.
16c\	16ee\	.	.	.	.
16A\	16cc\	.	.	.	.
16E\	16a\	.	.	.	.
16E\JJ	16e\JJ	.	.	.	.
16C\LL	16c\LL	.	.	.	.
16A\	16a\	.	.	.	.
16E\	16e\	.	.	.	.
16C\	16c\	.	.	.	.
16AA\	16A\	.	.	.	.
16EE\JJ	16E\JJ	.	.	.	.
=75	=75	=75	=75	=75	=75
*	*	*	*^	*	*
!	!LO:TX:t=P:problem=Brak zakończenia, dźwięki dopisane na kartce nie pasują do tego utworu	!	!	!	!	!
2.ryy	2.ryy	.	2.a/_>	2.A\ 2.e\_<	.	.
=76	=76	=76	=76	=76	=76	=76
2.ryy	2.ryy	.	(>2.e/_< 2.a/]	2.c\	.	.
*	*	*	*v	*v	*	*
=77	=77	=77	=77	=77	=77
2.ryy	2.ryy	.	8A\) 8e\] 8a\ 8cc\	.	.
.	.	.	8r	.	.
.	.	.	8r	.	.
.	.	.	4r	.	.
.	.	.	8r	.	.
==	==	==	==	==	==
*-	*-	*-	*-	*-	*-
!!!system-decoration: g1[{g2}]
!!!RDF**dynam: < = "crescendo", fontstyle="italic"
!!!RDF**kern: @ = marked note, color=gray
!!!RDF**kern: > = above
!!!RDF**kern: < = below
!!!ENC: Filip Voros
!!!END: 2021-10-27
!!!EED: Jędrzej Mróz
!!!ESR: 2021-11-05
